X:1
P: MacKinnon's Rant
C: Cape Breton, DunGreen Colln
C: arr. T. Traub 7-10-98
M: 4/4
L: 1/8
R: reel
K: Am
|: g|"Am"e2 dB A2 Ac|"G"BGdG Bcdg|"Am"e2 dB A2 Ag|"D"f2 ed "Am"eA A :|
f|"G"gabg "D"a/a/a ba|"G"gaba gede|"G"gabg "D"a/a/a gf|"Em"edBd "Am"eAAf|
"G"gabg "D"a/a/a ba|"G"gaba gede|"C"gage "G"dega|"Em"gedB "Am"eA A|]
